<?xml version="1.0" encoding="UTF-8"?>
<map version="1.10" tiledversion="1.10.2" orientation="orthogonal" renderorder="right-down" width="15" height="15" tilewidth="64" tileheight="64" infinite="0" nextlayerid="3" nextobjectid="1">
 <tileset firstgid="1" name="Level3" tilewidth="64" tileheight="64" tilecount="6" columns="0">
  <grid orientation="orthogonal" width="1" height="1"/>
  <tile id="0">
   <image width="64" height="64" source="base_tile.png"/>
  </tile>
  <tile id="1">
   <image width="64" height="64" source="fire8.png"/>
  </tile>
  <tile id="2">
   <image width="64" height="64" source="fire7.png"/>
  </tile>
  <tile id="3">
   <image width="64" height="64" source="fire6.png"/>
  </tile>
  <tile id="4">
   <image width="64" height="64" source="fire5.png"/>
  </tile>
  <tile id="5">
   <image width="64" height="64" source="fire4.png"/>
  </tile>
 </tileset>
 <layer id="1" name="Tile Layer 1" width="15" height="15">
  <data encoding="csv">
1,1,1,1,1,1,1,1,1,1,1,1,1,1,1,
1,1,1,1,1,1,1,1,1,1,1,1,1,1,1,
1,1,1,1,1,1,1,1,1,1,1,1,1,1,1,
1,1,1,1,1,1,1,1,1,1,1,1,1,1,1,
1,1,1,1,1,1,1,1,1,1,1,1,1,1,1,
1,1,1,1,1,1,1,1,1,1,1,1,1,1,1,
1,1,1,1,1,1,1,1,1,1,1,1,1,1,1,
1,1,1,1,1,1,1,1,1,1,1,1,1,1,1,
1,1,1,1,1,1,1,1,1,1,1,1,1,1,1,
1,1,1,1,1,1,1,1,1,1,1,1,1,1,1,
1,1,1,1,1,1,1,1,1,1,1,1,1,1,1,
1,1,1,1,1,1,1,1,1,1,1,1,1,1,1,
1,1,1,1,1,1,1,1,1,1,1,1,1,1,1,
1,1,1,1,1,1,1,1,1,1,1,1,1,1,1,
1,1,1,1,1,1,1,1,1,1,1,1,1,1,1
</data>
 </layer>
 <layer id="2" name="Tile Layer 2" width="15" height="15">
  <data encoding="csv">
2,3,4,5,6,5,4,3,2,3,4,5,6,5,4,
3,0,0,0,0,0,0,0,0,0,0,0,0,0,3,
4,0,0,0,0,0,0,0,0,0,0,0,0,0,2,
5,0,0,0,0,0,0,0,0,0,0,0,0,0,3,
6,0,0,0,0,0,0,0,0,0,0,0,0,0,4,
5,0,0,0,0,0,0,0,0,0,0,0,0,0,5,
4,0,0,0,0,0,0,0,0,0,0,0,0,0,6,
3,0,0,0,0,0,0,0,0,0,0,0,0,0,5,
2,0,0,0,0,0,0,0,0,0,0,0,0,0,4,
3,0,0,0,0,0,0,0,0,0,0,0,0,0,3,
4,0,0,0,0,0,0,0,0,0,0,0,0,0,2,
5,0,0,0,0,0,0,0,0,0,0,0,0,0,3,
6,0,0,0,0,0,0,0,0,0,0,0,0,0,4,
5,0,0,0,0,0,0,0,0,0,0,0,0,0,5,
4,3,2,3,4,5,6,5,4,3,2,3,4,5,6
</data>
 </layer>
</map>
